src/WebExpress.WebUI/Assets/icons/rocket.svg

﻿<?xml version="1.0" encoding="UTF-8" standalone="no"?>
<svg width="21" height="21" viewBox="0 0 21 21" xmlns="http://www.w3.org/2000/svg">
  <style>.st1 {display:none}
		.st2 {fill:#000000;stroke:#000000;stroke-linecap:round;stroke-linejoin:round;stroke-width:0.24}
		.st3 {fill:#000000;stroke:#000000;stroke-linecap:round;stroke-linejoin:round;stroke-width:0.749998}
		.st4 {fill:none;fill-rule:evenodd;font-size:12px;overflow:visible;stroke-linecap:square;stroke-miterlimit:3}</style>
  <g transform="scale(0.074083)">
<g>
		
		
		<g id="shape1-1" transform="translate(0.000280035,-0.0004331)">
			
			<rect x="0" y="-0.035" width="283.5" height="283.5" class="st1"/>
		</g>
		<g id="group2-3" transform="translate(251.925,-29.5792) rotate(45)">
			
			<g id="shape3-4" transform="translate(29.7134,-1.7053E-013)">
				
				
				<path d="M27.76 270.44 L21.93 258.78 A8.99998 8.99998 -180 0 0 5.83 258.78 L0 270.44 A8.99998 8.99998 -180 0 0 8.05
							 283.46 L19.71 283.46 A8.99998 8.99998 -180 0 0 27.76 270.44 Z" class="st2"/>
			</g>
			<g id="shape4-6" transform="translate(0,-27.0635)">
				
				<path d="M34.83 155.38 A8.7678 8.7678 0 1 1 52.36 155.38 A8.7678 8.7678 0 0 1 34.83 155.38 ZM34.83 184.73 A8.7678
							 8.7678 0 1 1 52.36 184.73 A8.7678 8.7678 0 0 1 34.83 184.73 ZM34.83 214.08 A8.7678 8.7678 0 0 1 52.36
							 214.08 A8.7678 8.7678 0 0 1 34.83 214.08 ZM21.66 244.25 A43.6239 43.6239 -180 0 0 0.01 280.04 L0 280.24
							 A3.27999 3.27999 -180 0 0 2.5 283.46 L24.72 283.46 L33.84 265.23 A73.3826 36.9011 -90 0 0 43.48 272.31
							 L43.48 272.41 L43.59 272.36 L43.7 272.41 L43.7 272.31 A73.3826 36.9011 -90 0 0 53.35 265.23 L62.46 283.46
							 L84.69 283.46 L84.7 283.46 A3.27999 3.27999 -180 0 0 87.19 280.24 L87.18 280.04 A43.6272 43.6272 -180
							 0 0 65.52 244.25 A73.3826 36.9011 -90 0 0 43.7 128.9 L43.7 128.81 L43.59 128.86 L43.48 128.81 L43.48
							 128.9 A73.3826 36.9011 -90 0 0 21.66 244.25 Z" class="st3"/>
			</g>
		</g>
	</g>
  </g>
</svg>

<?xml version="1.0" encoding="UTF-8"?>
<svg width="21" height="21" version="1.1" viewBox="0 0 21 21" xmlns="http://www.w3.org/2000/svg">
 <style>.st1 {display:none}
		.st2 {fill:#000000;stroke:#000000;stroke-linecap:round;stroke-linejoin:round;stroke-width:0.24}
		.st3 {fill:#000000;stroke:#000000;stroke-linecap:round;stroke-linejoin:round;stroke-width:0.749998}
		.st4 {fill:none;fill-rule:evenodd;font-size:12px;overflow:visible;stroke-linecap:square;stroke-miterlimit:3}</style>
 <g transform="matrix(.13108 0 0 .13108 -8.1539 -8.0722)">
  <g transform="rotate(45 161.67 289.31)">
   <g transform="translate(29.713)">
    <path class="st2" d="m27.76 270.44-5.83-11.66a9 9-180 0 0-16.1 0l-5.83 11.66a9 9-180 0 0 8.05 13.02h11.66a9 9-180 0 0 8.05-13.02z"/>
   </g>
   <g transform="translate(0 -27.064)">
    <path class="st3" d="m34.83 155.38a8.7678 8.7678 0 1 1 17.53 0 8.7678 8.7678 0 0 1-17.53 0zm0 29.35a8.7678 8.7678 0 1 1 17.53 0 8.7678 8.7678 0 0 1-17.53 0zm0 29.35a8.7678 8.7678 0 0 1 17.53 0 8.7678 8.7678 0 0 1-17.53 0zm-13.17 30.17a43.624 43.624-180 0 0-21.65 35.79l-0.01 0.2a3.28 3.28-180 0 0 2.5 3.22h22.22l9.12-18.23a73.383 36.901-90 0 0 9.64 7.08v0.1l0.11-0.05 0.11 0.05v-0.1a73.383 36.901-90 0 0 9.65-7.08l9.11 18.23h22.24a3.28 3.28-180 0 0 2.49-3.22l-0.01-0.2a43.627 43.627-180 0 0-21.66-35.79 73.383 36.901-90 0 0-21.82-115.35v-0.09l-0.11 0.05-0.11-0.05v0.09a73.383 36.901-90 0 0-21.82 115.35z"/>
   </g>
  </g>
 </g>
</svg>
